!!!!SEGMENT: pl-kk--kk-i-7--049-002_samin-vulfran--missa-sancti-spiritus-et-in-terra.krn
!!!cenid: 16xx:861
!!!COM: Samin, Vulfran
!!!COM-rismid: pe30102784
!!!CDT: <1543->1559
!!!CNT: French
!!!OTL: Missa Sancti Spiritus – Et in terra
!!!PDT:
!!!AGN: Sacred; Mass
!!!SMS-siglum: PL-Kk
!!!SMS-shelfmark: Kk.I.7
!!!SMS-shelfwork: 049-002 M
!!!SMS-variant:
!!!SMS-altvar:
!!!NIFC-rismid: 300258126
!!!URL-scan: http://repozytorium.nifc.pl/skany/pl-kk-nut--i-7
!!!ONB-nifc: UWAGA: C (skan 0044-0046, s.83-86), A (0129-0130, s.78-80), T(0205-0206, s.73-75), B(0294, s.74-75). Części Mszy: 1. Kyrie, 2. Et in terra, 3. Sanctus, 4. Agnus Dei
**kern	**text	**kern	**text	**kern	**text	**kern	**text
*part4	*part4	*part3	*part3	*part2	*part2	*part1	*part1
*staff4	*staff4	*staff3	*staff3	*staff2	*staff2	*staff1	*staff1
*I"BASSVS.	*	*I"TENOR.	*	*I"ALTVS.	*	*I"CANTVS.	*
*I'B	*	*I'T	*	*I'A	*	*I'S	*
*clefF4	*	*clefC4	*	*clefC3	*	*clefC1	*
*k[]	*	*k[]	*	*k[]	*	*k[]	*
*C:	*	*C:	*	*C:	*	*C:	*
*M2/1	*	*M2/1	*	*M2/1	*	*M2/1	*
*met(c|)	*	*met(c|)	*	*met(c|)	*	*met(c|)	*
=1	=1	=1	=1	=1	=1	=1	=1
!LO:TX:b:t=Et in terra.	!	!LO:TX:b:t=Et in terra	!	!	!	!	!
!LO:TX:t=P:problem:przed kluczem inicjał E	!	!	!	!LO:TX:t=P:problem:przed kluczem inicjał E	!	!LO:TX:t=P:problem:przed kluczem inicjał E	!
!	!	!LO:TX:t=P:problem:przed kluczem inicjał E	!	!	!	!	!
00r	.	00r	.	1.G/	Et	0r	.
!	!	!	!	!LO:TX:t=P:problem:kreska pseudotaktowa	!	!	!
.	.	.	.	2G/	in	.	.
=2-	=2-	=2-	=2-	=2-	=2-	=2-	=2-
!	!	!	!	!	!	!LO:TX:t=P:problem:kreska pseudotaktowa	!
.	.	.	.	2A/	ter-	1r	.
.	.	.	.	2G/	-ra	.	.
.	.	.	.	2c,</	pax	1.g\	Et
.	.	.	.	2c/	in	.	.
=3-	=3-	=3-	=3-	=3-	=3-	=3-	=3-
!LO:TX:t=P:problem:kreska pseudotaktowa	!	!	!	!	!	!	!
00r	.	0r	.	2B/	ter-	.	.
!	!	!	!	!LO:TX:t=P:problem:kreska pseudotaktowa	!	!	!
.	.	.	.	2c/	.	2g/	in
*	*	*	*	*	*	*2\right	*
.	.	.	.	2A/	-ra	2a\	ter-
*	*	*	*	*2\right	*	*	*
!	!	!	!	!	!	!LO:TX:t=P:problem:kreska pseudotaktowa	!
.	.	.	.	2.c\	pax	2g\	-ra
=4-	=4-	=4-	=4-	=4-	=4-	=4-	=4-
!	!	!LO:TX:t=P:problem:kreska pseudotaktowa	!	!	!	!	!
.	.	1r	.	.	.	2cc\	pax
.	.	.	.	4d\	.	.	.
.	.	.	.	4e\	.	2cc\	ho-
!	!	!	!	!LO:TX:t=P:problem:kreska pseudotaktowa	!	!	!
.	.	.	.	4c\	.	.	.
.	.	2r	.	2d\	.	2b\	-mi-
.	.	2A/	Bo-	2e\	.	2cc\	-ni-
=5-	=5-	=5-	=5-	=5-	=5-	=5-	=5-
!	!	!	!	!	!	!LO:TX:t=P:problem:kreska pseudotaktowa	!
2r	.	2D/	-nae	4f\	.	1a\	-b(us)
.	.	.	.	4e\	.	.	.
2D/	Bo-	2A/	Vo-	4d\	.	.	.
!	!	!	!	!LO:TX:t=P:problem:kreska pseudotaktowa	!	!	!
.	.	.	.	4c\	.	.	.
*	*	*2\right	*	*	*	*	*
2GG/	-nae	2B\	-lun-	2d\	.	2g/	bo-
!LO:TX:t=P:problem:kreska pseudotaktowa	!	!LO:TX:t=P:problem:kreska pseudotaktowa	!	!	!	!	!
2C/	Vo-	2c\	-ta-	2e\	ho-	2g/	-nae
=6-	=6-	=6-	=6-	=6-	=6-	=6-	=6-
4D\	-lun-	2A\	-tis	2d\	-mi-	2f/	Vo-
4E\	.	.	.	.	.	.	.
4F\	.	1d\	.	2A/	-ni-	2f/	-lun-
4D\	.	.	.	.	.	.	.
*2\right	*	*	*	*	*	*	*
2E\	-ta-	.	.	2e,<\	-b(us)	2g/	-ta-
!LO:TX:t=P:problem:kreska pseudotaktowa	!	!	!	!LO:TX:t=P:problem:kreska pseudotaktowa	!	!	!
2F\	.	2c\	Vo-	2A/	bo-	2.a\	.
=7-	=7-	=7-	=7-	=7-	=7-	=7-	=7-
2G\	.	2B\	-lun-	2d\	-nae	.	.
.	.	.	.	.	.	4g/	.
2E\	.	2G/	.	2c\	vo-	1g\	.
!LO:TX:t=P:problem:kreska pseudotaktowa	!	!	!	!	!	!	!
1D\	.	1A\	-ta-	1.d\	-lun-	.	.
!	!	!	!	!	!	!LO:TX:t=P:problem:kreska pseudotaktowa	!
.	.	.	.	.	.	2f/	.
=8-	=8-	=8-	=8-	=8-	=8-	=8-	=8-
!	!	!LO:TX:t=P:problem:kreska pseudotaktowa	!	!	!	!	!
2GG,</	-tis	0G/	-tis	.	.	1.g\,<	-tis.
2C/	Lau-	.	.	2e\	-ta-	.	.
!	!	!	!	!LO:TX:t=P:problem:kreska pseudotaktowa	!	!	!
2C/	-da-	.	.	1c\	-tis.	.	.
2C/	-m(us)	.	.	.	.	2e/	Lau-
=9-	=9-	=9-	=9-	=9-	=9-	=9-	=9-
2D/	.	0r	.	2r	.	2f/	-da-
!LO:TX:t=P:problem:kreska pseudotaktowa	!	!	!	!	!	!LO:TX:t=P:problem:kreska pseudotaktowa	!
2C/	Te	.	.	2c/	Lau-	2g/	-m(us)
2F,<\	.	.	.	2c\	-da-	2.a\	Te
2F\	be-	.	.	2c\	-m(us)	.	.
.	.	.	.	.	.	4g/	.
=10-	=10-	=10-	=10-	=10-	=10-	=10-	=10-
2D\	-ne-	2r	.	2d,<\	Te	2f/	.
!	!	!	!	!LO:TX:t=P:problem:kreska pseudotaktowa	!	!	!
2.E\	.	2G/	Lau-	2c/	be-	2g/	.
!	!	!	!	!	!	!LO:TX:t=P:problem:kreska pseudotaktowa	!
.	.	2G/	-da-	2g\	-ne-	1e/	.
4D/	.	.	.	.	.	.	.
4C/	.	2G/	-m(us)	2g\	-di-	.	.
4BB/	.	.	.	.	.	.	.
=11-	=11-	=11-	=11-	=11-	=11-	=11-	=11-
!	!	!	!	!LO:TX:t=P:problem:kreska pseudotaktowa	!	!	!
2.C/	-di-	2A/	Te	1e\	-ci-	00r	.
!	!	!LO:TX:t=P:problem:kreska pseudotaktowa	!	!	!	!	!
.	.	2G/	be-	.	.	.	.
!LO:TX:t=P:problem:kreska pseudotaktowa	!	!	!	!	!	!	!
4BB/	.	.	.	.	.	.	.
!	!	!	!	!LO:LB:g=original	!	!	!
4AA/	.	2c\	-ne-	4e\	.	.	.
4BB/	.	.	.	4d\	.	.	.
4C/	.	2c\	-di-	4e\	.	.	.
4D/	.	.	.	4f\	.	.	.
=12-	=12-	=12-	=12-	=12-	=12-	=12-	=12-
4E\	.	2B\	-ci-	2g\	.	.	.
4D\	.	.	.	.	.	.	.
4C/	.	1c\	.	2g\	-mus	.	.
4D/	.	.	.	.	.	.	.
!	!	!	!	!LO:TX:t=P:problem:kreska pseudotaktowa	!	!	!
4E\	.	.	.	1G/	Te;	.	.
4F\	.	.	.	.	.	.	.
!	!	!LO:TX:t=P:problem:kreska pseudotaktowa	!	!	!	!	!
1G\	-ci-	2B\	-m(us)	.	.	.	.
=13-	=13-	=13-	=13-	=13-	=13-	=13-	=13-
.	.	1A\	Te	1r	.	2r	.
2F\	-m(us)	.	.	.	.	1cc\	a-
!LO:TX:t=P:problem:kreska pseudotaktowa	!	!LO:TX:t=P:problem:kreska pseudotaktowa	!	!	!	!	!
1G\	Te,	1G/	.	2r	.	.	.
.	.	.	.	2g\	a-	2b\	-do-
=14-	=14-	=14-	=14-	=14-	=14-	=14-	=14-
!LO:TX:t=P:problem:kreska pseudotaktowa	!	!	!	!	!	!	!
1r	.	2r	.	2f\	-do-	2a\	-ra-
!	!	!	!	!LO:TX:t=P:problem:kreska pseudotaktowa	!	!LO:TX:t=P:problem:kreska pseudotaktowa	!
.	.	1c\	a-	2e\	-ra-	2cc\	-m(us)
!LO:LB:g=original	!	!	!	!	!	!	!
1G\	a-	.	.	1g\	-m(us)	1.dd\	Te
!	!	!LO:TX:t=P:problem:kreska pseudotaktowa	!	!	!	!	!
.	.	2B\	-do-	.	.	.	.
=15-	=15-	=15-	=15-	=15-	=15-	=15-	=15-
2F\	-do-	2A\	-ra-	2a\	Te	.	.
!	!	!	!	!	!	!LO:TX:t=P:problem:kreska pseudotaktowa	!
!	!	!	!	!	!	!LO:SIC:v:t=custos cc	!
2E\	-ra-	2c\	-m(us)	2.g\	.	[<2cc\	.
!	!	!	!	!	!	!LO:N:xstem:cue	!
!	!	!	!	!	!	!LO:TX:t=P:problem:brak zakonczenia ligatury	!
!	!	!	!	!	!	!LO:LB:g=original	!
1G\	-m(us)	2d\	Te	.	.	4cc\]	.
.	.	.	.	4f\	.	4b\	.
.	.	2B\	glo-	4d\	.	2b\	.
.	.	.	.	4e\	.	.	.
=16-	=16-	=16-	=16-	=16-	=16-	=16-	=16-
!LO:TX:t=P:problem:kreska pseudotaktowa	!	!	!	!	!	!LO:TX:t=P:problem:kreska pseudotaktowa	!
1A\	Te.	2c\	-ri-	2f\	.	1a\	.
!	!	!LO:TX:t=P:problem:kreska pseudotaktowa	!	!	!	!	!
.	.	2c\	-fi-	2e\	.	.	.
!	!	!LO:LB:g=original	!	!	!	!	!
0r	.	2F/	-ca-	2f,<\	.	2r	.
!	!	!	!	!LO:TX:t=P:problem:kreska pseudotaktowa	!	!	!
.	.	2G/	-m(us)	2d\	glo-	2b\	glo-
=17-	=17-	=17-	=17-	=17-	=17-	=17-	=17-
!	!	!LO:TX:t=P:problem:kreska pseudotaktowa	!	!	!	!	!
.	.	1A\	Te.	2.c/	-ri-	2cc\	-ri-
!	!	!	!	!	!	!LO:TX:t=P:problem:kreska pseudotaktowa	!
.	.	.	.	.	.	2a\	-fi-
.	.	.	.	4B/	-fi-	.	.
2r	.	0r	.	2c\	-ca-	2g/	-ca-
!LO:TX:t=P:problem:kreska pseudotaktowa	!	!	!	!LO:TX:t=P:problem:kreska pseudotaktowa	!	!	!
2D/	gra-	.	.	2d\	-mus	2f/	-m(us)
=18-	=18-	=18-	=18-	=18-	=18-	=18-	=18-
2C/	-ti-	.	.	2G,</	Te.	2g,</	Te.
!	!	!	!	!	!	!LO:TX:t=P:problem:kreska pseudotaktowa	!
2BB,</	-as	.	.	2d\	Gra-	2g/	Gra-
2C/	a-	2r	.	2.c/	-ti-	2e/	-ti-
!LO:TX:t=P:problem:kreska pseudotaktowa	!	!	!	!	!	!	!
2C/	-gi-	2G/	Gra-	.	.	2e/	-as
.	.	.	.	4B/	.	.	.
=19-	=19-	=19-	=19-	=19-	=19-	=19-	=19-
1AA/,<	-m(us)	2F/	-ti-	2c\	-as	2.a\	a-
!	!	!	!	!LO:TX:t=P:problem:kreska pseudotaktowa	!	!	!
.	.	2E/	-as	2c\	a-	.	.
.	.	.	.	.	.	4a\	-gi-
1D\	Ti-	2F/	a-	2A/	-gi-	2a\	-m(us)
!	!	!	!	!	!	!LO:TX:t=P:problem:kreska pseudotaktowa	!
.	.	2F/	-gi-	1d\	-m(us)	2a\	Ti-
=20-	=20-	=20-	=20-	=20-	=20-	=20-	=20-
!LO:TX:t=P:problem:kreska pseudotaktowa	!	!LO:TX:t=P:problem:kreska pseudotaktowa	!	!	!	!	!
0GG/	-bi	1D/	-m(us)	.	.	2g/	-bi
.	.	.	.	2.B/	Ti-	1g\	p(ro)-
.	.	1G/	Ti-	.	.	.	.
.	.	.	.	4c/	.	.	.
.	.	.	.	4d/	.	2g/	-pter
.	.	.	.	4B/	.	.	.
=21-	=21-	=21-	=21-	=21-	=21-	=21-	=21-
!LO:TX:t=P:problem:kreska pseudotaktowa	!	!	!	!LO:TX:t=P:problem:kreska pseudotaktowa	!	!	!
0r	.	1A\	-bi	1c\	-bi	2f/	ma-
.	.	.	.	.	.	2e/	-gn(am)
.	.	1.d\	p(ro)-	0r	.	2f/	glo-
.	.	.	.	.	.	2f/	-(ri)-
=22-	=22-	=22-	=22-	=22-	=22-	=22-	=22-
!	!	!	!	!	!	!LO:TX:t=P:problem:kreska pseudotaktowa	!
1.G\	p(ro)-	.	.	.	.	1d/	-am
.	.	2c\	-pter	.	.	.	.
!	!	!	!	!LO:TX:t=P:problem:kreska pseudotaktowa	!	!	!
.	.	2B\	ma-	1r	.	0r	.
!LO:TX:t=P:problem:kreska pseudotaktowa	!	!LO:TX:t=P:problem:kreska pseudotaktowa	!	!	!	!	!
2F\	-pter	2A\	.	.	.	.	.
=23-	=23-	=23-	=23-	=23-	=23-	=23-	=23-
2E\	ma-	2c\	-gnam	2r	.	.	.
2D\	-gnam	2B\	glo-	1d\	pro-	.	.
2F\	glo-	2A/	-ri-	.	.	2r	.
!	!	!	!	!LO:TX:t=P:problem:kreska pseudotaktowa	!	!	!
2E\	-ri-	2G/	-am	2c/	-pter	1g\	p(ro)-
=24-	=24-	=24-	=24-	=24-	=24-	=24-	=24-
!	!	!LO:TX:t=P:problem:kreska pseudotaktowa	!	!LO:LB:g=original	!	!	!
2D,<\	-am	1d\	tu-	2B/	ma-	.	.
!LO:TX:t=P:problem:kreska pseudotaktowa	!	!	!	!	!	!	!
2D\	tu-	.	.	2A/	-gn(am)	2f/	-pter
2C/	-am	2G/	-am	2c/	glo-	2e/	ma-
!	!	!	!	!LO:TX:t=P:problem:kreska pseudotaktowa	!	!LO:TX:t=P:problem:kreska pseudotaktowa	!
2GG/	glo-	2G/	glo-	2B/	-ri-	2d/	-gn(am)
=25-	=25-	=25-	=25-	=25-	=25-	=25-	=25-
2D/	-(ri)-	2F/	-(ri)-	2A/	-am	2f/	glo-
2C/	-am	2E/	-am	1c\	tu-	2g/	-(ri)-
1D\	tu-	1F/	tu-	.	.	2f/	-am
!	!	!	!	!	!	!LO:TX:t=P:problem:kreska pseudotaktowa	!
.	.	.	.	2B/	.	2d/	.
=26-	=26-	=26-	=26-	=26-	=26-	=26-	=26-
!LO:TX:t=P:problem:kreska pseudotaktowa	!	!LO:TX:t=P:problem:kreska pseudotaktowa	!	!LO:TX:t=P:problem:kreska pseudotaktowa	!	!	!
0C/	-am	1G/	-am.	1c\	-am.	2.e/	tu-
.	.	.	.	.	.	4f/	.
!	!	!	!	!	!	!LO:TX:t=P:problem:kreska pseudotaktowa	!
.	.	2r	.	2r	.	00g\	-am
.	.	1c\	D(o-	1e\	Do-	.	.
=27-	=27-	=27-	=27-	=27-	=27-	=27-	=27-
1r	.	.	.	.	.	.	.
.	.	2c\	-mi)-	2e\	-mi-	.	.
2r	.	2.B\	-ne	2.d\	-ne	.	.
1G\	Do-	.	.	.	.	.	.
!	!	!	!	!LO:TX:t=P:problem:kreska pseudotaktowa	!	!	!
.	.	4A\	De-	4c\	DE-	.	.
=28-	=28-	=28-	=28-	=28-	=28-	=28-	=28-
.	.	2B\	-us	2d\	-us.	.	.
2G\	-mi-	2B\	Rex	2e\	Rex	.	.
!	!	!LO:TX:t=P:problem:kreska pseudotaktowa	!	!	!	!	!
2F\	-ne	1c\	cae-	2f\	cae-	0r	.
!LO:TX:t=P:problem:kreska pseudotaktowa	!	!	!	!LO:TX:t=P:problem:kreska pseudotaktowa	!	!	!
2E\	DE-	.	.	2g\	-le-	.	.
=29-	=29-	=29-	=29-	=29-	=29-	=29-	=29-
2F\	-(us)	1A\	-le-	2c,<\	-ſtis	.	.
2D\	Rex	.	.	1d\	DE-	.	.
!	!	!LO:TX:t=P:problem:kreska pseudotaktowa	!	!	!	!	!
2G\	cae-	1B\	-ſtis.	.	.	2r	.
2G\	-le-	.	.	2d\	-US	1g\	DE-
=30-	=30-	=30-	=30-	=30-	=30-	=30-	=30-
!LO:TX:t=P:problem:kreska pseudotaktowa	!	!	!	!	!	!	!
1C/	-ſtis	00r	.	1e\	Pa-	.	.
.	.	.	.	.	.	2g/	-US
!LO:PB:g=original	!	!	!	!	!	!	!
!LO:TX:t=P:problem:kreska pseudotaktowa	!	!	!	!	!	!	!
00r	.	.	.	2d,<\	-ter	1a\	Pa-
!	!	!	!	!LO:TX:t=P:problem:kreska pseudotaktowa	!	!	!
.	.	.	.	2A/	o-	.	.
=31-	=31-	=31-	=31-	=31-	=31-	=31-	=31-
.	.	.	.	2.B/	.	2g/	-ter
!	!	!	!	!	!	!LO:TX:t=P:problem:kreska pseudotaktowa	!
.	.	.	.	.	.	2d/	O-
.	.	.	.	4c/	.	.	.
!	!	!	!	!	!	!LO:LB:g=original	!
.	.	.	.	2d\	.	2f/	.
!	!	!	!	!LO:TX:t=P:problem:kreska pseudotaktowa	!	!	!
.	.	.	.	2B/	.	2g/	.
=32-	=32-	=32-	=32-	=32-	=32-	=32-	=32-
!	!	!LO:TX:t=P:problem:kreska pseudotaktowa	!	!	!	!	!
!	!	!LO:SIC:v:t=custos G	!	!	!	!	!
.	.	0r	.	2c/	-mni-	2a/	.
.	.	.	.	2B/	-po-	1g\	-mni-
2.D\	Do-	.	.	2A,</	-tens	.	.
!	!	!	!	!LO:TX:t=P:problem:kreska pseudotaktowa	!	!	!
.	.	.	.	2d\	Do-	2f/	-po-
4D\	-mi-	.	.	.	.	.	.
=33-	=33-	=33-	=33-	=33-	=33-	=33-	=33-
!	!	!LO:LB:g=original	!	!	!	!LO:TX:t=P:problem:kreska pseudotaktowa	!
2E\	-ne	2.G/	D(o-	2B/	-mi-	1g\	-tens
2E\	Fi-	.	.	2c\	-ne	.	.
.	.	4G/	-mi)-	.	.	.	.
2D\	-li	2A/	-ne	2d\	Fi-	00r	.
!LO:TX:t=P:problem:kreska pseudotaktowa	!	!	!	!	!	!	!
2AA/	u-	2A/	Fi-	1c\	-li	.	.
=34-	=34-	=34-	=34-	=34-	=34-	=34-	=34-
2C/	-ni-	2G/	-li	.	.	.	.
!	!	!LO:TX:t=P:problem:kreska pseudotaktowa	!	!	!	!	!
4BB/	-ge-	2D/	U-	1d\	U-	.	.
4C/	.	.	.	.	.	.	.
2D/	.	2F/	-ni-	.	.	.	.
!	!	!	!	!LO:TX:t=P:problem:kreska pseudotaktowa	!	!	!
2BB/	.	2G/	.	2d\	-ni-	.	.
=35-	=35-	=35-	=35-	=35-	=35-	=35-	=35-
2C/	.	2A/	-ge-	2c\	-ge-	.	.
!LO:TX:t=P:problem:kreska pseudotaktowa	!	!	!	!LO:SIC:v:t=custos B	!	!	!
2D/	-ni-	2F/	-ni-	2A/	-ni-	.	.
2GG,</	-te	2G/	-te	2B,</	-te	2r	.
1G\	JE-	1B\	Je-	1d\	Je-	1g\	Je-
=36-	=36-	=36-	=36-	=36-	=36-	=36-	=36-
!LO:TX:t=P:problem:kreska pseudotaktowa	!	!	!	!	!	!	!
2C/	-su	2c\	-su	2e\	-su	2g/	-su
!	!	!	!	!LO:TX:t=P:problem:kreska pseudotaktowa	!	!	!
1D\	X-	1A\	x-	1d\	x-	1f/	x-
=37-	=37-	=37-	=37-	=37-	=37-	=37-	=37-
!	!	!LO:TX:t=P:problem:kreska pseudotaktowa	!	!	!	!LO:TX:t=P:problem:kreska pseudotaktowa	!
2E\	.	0G/	-te	2B,</	-te	1e/	-te
2C/	.	.	.	1c\	Do-	.	.
!LO:TX:t=P:problem:kreska pseudotaktowa	!	!	!	!	!	!	!
1GG/	-te	.	.	.	.	2r	.
.	.	.	.	2B/	-mi-	1g\	D(o-
=38-	=38-	=38-	=38-	=38-	=38-	=38-	=38-
0r	.	00r	.	2c\	-ne	.	.
!	!	!	!	!LO:TX:t=P:problem:kreska pseudotaktowa	!	!	!
.	.	.	.	2d\	De-	2f/	-mi)-
.	.	.	.	2c\	-us	2g\	-ne
!	!	!	!	!	!	!LO:TX:t=P:problem:kreska pseudotaktowa	!
.	.	.	.	1f\	A-	2a\	De-
=39-	=39-	=39-	=39-	=39-	=39-	=39-	=39-
!LO:TX:t=P:problem:kreska pseudotaktowa	!	!	!	!	!	!	!
1r	.	.	.	.	.	2g\	-us.
.	.	.	.	2e\	-gn(us)	1cc\	A-
!	!	!	!	!LO:TX:t=P:problem:kreska pseudotaktowa	!	!	!
2r	.	.	.	1d\	De-	.	.
1G\	A-	.	.	.	.	2b\	-gn(us)
=40-	=40-	=40-	=40-	=40-	=40-	=40-	=40-
!	!	!LO:TX:t=P:problem:kreska pseudotaktowa	!	!	!	!LO:TX:t=P:problem:kreska pseudotaktowa	!
.	.	0r	.	2c,<\	-i	1a\	De-
!LO:TX:t=P:problem:kreska pseudotaktowa	!	!	!	!	!	!	!
2F\	-gn(us)	.	.	1d\	Fi-	.	.
1E\	De-	.	.	.	.	2g/	-i
!	!	!	!	!LO:TX:t=P:problem:kreska pseudotaktowa	!	!	!
.	.	.	.	2c/	-li-	2g/	Fi-
=41-	=41-	=41-	=41-	=41-	=41-	=41-	=41-
2D/	.	2r	.	1.d\	-(us)	2f/	-li-
!	!	!	!	!	!	!LO:TX:t=P:problem:kreska pseudotaktowa	!
2GG/	.	1G/	Fi-	.	.	2g/	-(us)
!LO:TX:t=P:problem:kreska pseudotaktowa	!	!	!	!	!	!	!
1D\	-i	.	.	.	.	2.a\	Pa-
.	.	2F/	-li-	2f\	Pa-	.	.
.	.	.	.	.	.	8g\L	.
.	.	.	.	.	.	8a\J	.
=42-	=42-	=42-	=42-	=42-	=42-	=42-	=42-
1r	.	2G/	-(us)	2e\	.	2b\	.
!	!	!	!	!LO:TX:t=P:problem:kreska pseudotaktowa	!	!	!
.	.	2A/	Pa-	2c\	.	1cc\	.
!	!	!LO:TX:t=P:problem:kreska pseudotaktowa	!	!	!	!	!
2r	.	1G/	-tris	1d\	.	.	.
!LO:TX:t=P:problem:kreska pseudotaktowa	!	!	!	!	!	!LO:TX:t=P:problem:kreska pseudotaktowa	!
2G\	Qui	.	.	.	.	2b\	.
=43-	=43-	=43-	=43-	=43-	=43-	=43-	=43-
1A\	tol-	2r	.	4c\	.	2cc,<\	-tris
.	.	.	.	4d\	.	.	.
.	.	2c\	Qui	4e\	.	2a\	Qui
!	!	!	!	!LO:TX:t=P:problem:kreska pseudotaktowa	!	!	!
.	.	.	.	4f\	.	.	.
!	!	!	!	!	!	!LO:TX:t=P:problem:kreska pseudotaktowa	!
2G\	-lis	1d\	tol-	2g,<\	-tris.	1b\	tol-
!LO:TX:t=P:problem:kreska pseudotaktowa	!	!	!	!	!	!	!
2G\	pec-	.	.	2d\	Qui	.	.
=44-	=44-	=44-	=44-	=44-	=44-	=44-	=44-
2E\	-ca-	2c\	.	2e\	tol-	2g/	-lis
!	!	!LO:TX:t=P:problem:kreska pseudotaktowa	!	!	!	!	!
1F\	-ta	2c\	-lis	2A/	-lis	1a\	pec-
.	.	2A\	pec-	2d\	pec-	.	.
!LO:TX:t=P:problem:kreska pseudotaktowa	!	!	!	!	!	!	!
2D\	mun-	2B-X\	-ca-	2d\	-ca-	2f/	-ca-
=45-	=45-	=45-	=45-	=45-	=45-	=45-	=45-
2E\	.	2G/	-ta	2B/	-ta	1g\	-ta
2C/	-di	1c\	mun-	2e\	mun-	.	.
!	!	!	!	!LO:TX:t=P:problem:kreska pseudotaktowa	!	!	!
1D\	mi-	.	.	1d\	-di	1f/	mun-
.	.	2Bny\	.	.	.	.	.
=46-	=46-	=46-	=46-	=46-	=46-	=46-	=46-
!	!	!	!	!	!	!LO:TX:t=P:problem:kreska pseudotaktowa	!
1.C/	-ſe-	2c\	-di	1r	.	0e/	-di
.	.	2G/	mi-	.	.	.	.
.	.	1A\	-ſe-	1c\	mi-	.	.
!LO:TX:t=P:problem:kreska pseudotaktowa	!	!	!	!	!	!	!
!LO:SIC:v:t=custos BB	!	!	!	!	!	!	!
2AA/	.	.	.	.	.	.	.
=47-	=47-	=47-	=47-	=47-	=47-	=47-	=47-
!LO:LB:g=original	!	!LO:TX:t=P:problem:kreska pseudotaktowa	!	!	!	!	!
2BB/	-re-	1G/	-re-	2d\	-ſe-	2r	.
1C/	.	.	.	1c\	-re-	2g/	mi-
!	!	!	!	!	!	!LO:TX:t=P:problem:kreska pseudotaktowa	!
!	!	!	!	!	!	!LO:SIC:v:t=custos g	!
.	.	2E/	-re	.	.	1a\	-ſe-
!LO:TX:t=P:problem:kreska pseudotaktowa	!	!	!	!LO:TX:t=P:problem:kreska pseudotaktowa	!	!	!
2D/	.	2F/	no-	2A/	-re	.	.
=48-	=48-	=48-	=48-	=48-	=48-	=48-	=48-
!	!	!	!	!	!	!LO:LB:g=original	!
2BB/	.	2D/	.	2B/	no-	1g\	-re-
!	!	!	!	!LO:TX:t=P:problem:kreska pseudotaktowa	!	!	!
1C/	-re	1E/	.	2G/	-bis	.	.
.	.	.	.	2.c/	mi-	2.e/	-[re]
!	!	!LO:TX:t=P:problem:kreska pseudotaktowa	!	!	!	!	!
!LO:TX:t=P:problem:kreska pseudotaktowa	!	!LO:SIC:v:t=custos A	!	!	!	!	!
2AA/	.	[<2A/	.	.	.	.	.
.	.	.	.	4B/	-ſe-	8d/L	.
.	.	.	.	.	.	8e/J	.
=49-	=49-	=49-	=49-	=49-	=49-	=49-	=49-
!	!	!LO:N:xstem:cue	!	!	!	!	!
2D/	no-	4A/]	.	2A/	-re-	2f/	No-
.	.	4G/	.	.	.	.	.
2GG/	.	1G/	.	2B/	.	2d/	.
2C/	.	.	.	2c\	-re	2e/	.
!	!	!	!	!LO:TX:t=P:problem:kreska pseudotaktowa	!	!	!
2D/	.	2F/	.	2A/	.	2f/	.
=50-	=50-	=50-	=50-	=50-	=50-	=50-	=50-
!LO:TX:t=P:problem:kreska pseudotaktowa	!	!LO:TX:t=P:problem:kreska pseudotaktowa	!	!	!	!LO:TX:t=P:problem:kreska pseudotaktowa	!
0GG/	-bis.	1G/	-bis.	1B/	no-	0d/	-bis.
.	.	2r	.	2G,</	-bis	.	.
.	.	2G/	Qui	2B/	Qui	.	.
=51-	=51-	=51-	=51-	=51-	=51-	=51-	=51-
1r	.	1A\	tol-	1c\	tol-	2r	.
.	.	.	.	.	.	2e/	Qui
1D\	Qui	2F/	-lis	2A,</	-lis	1f/	tol-
!	!	!	!	!LO:TX:t=P:problem:kreska pseudotaktowa	!	!	!
.	.	1A\	pec-	2d\	/Qui	.	.
=52-	=52-	=52-	=52-	=52-	=52-	=52-	=52-
!LO:TX:t=P:problem:kreska pseudotaktowa	!	!	!	!	!	!	!
1E\	tol-	.	.	2c/	tol-	2e/	-lis
.	.	1G/	-ca-	2B/	.	2e/	pec-
2C/	-lis	.	.	1.e\	-lis/	2.g/	-ca-
!	!	!LO:TX:t=P:problem:kreska pseudotaktowa	!	!	!	!	!
1E\	pec-	2G/	-ta	.	.	.	.
!	!	!	!	!	!	!LO:TX:t=P:problem:kreska pseudotaktowa	!
.	.	.	.	.	.	4f/	.
=53-	=53-	=53-	=53-	=53-	=53-	=53-	=53-
.	.	1c\	mun-	.	.	2g/	-ta-
!	!	!	!	!LO:TX:t=P:problem:kreska pseudotaktowa	!	!	!
1F\	-ca-	.	.	2A/	pec-	2.a/	.
.	.	1A\	-di	2c\	-ca-	.	.
.	.	.	.	.	.	4g/	.
1D\	-ta	.	.	2.d\	-ta	4f/	.
.	.	.	.	.	.	4e/	.
=54-	=54-	=54-	=54-	=54-	=54-	=54-	=54-
!	!	!LO:TX:t=P:problem:kreska pseudotaktowa	!	!	!	!	!
.	.	1r	.	.	.	2f/	-mun-
.	.	.	.	4c/	.	.	.
!	!	!	!	!	!	!LO:TX:t=P:problem:kreska pseudotaktowa	!
2.E\	.	.	.	4B/	mun-	2g/	.
.	.	.	.	4A/	.	.	.
.	.	1.G/	Suſ-	2B/	.	2e,</	-di
4D/	.	.	.	.	.	.	.
!LO:TX:t=P:problem:kreska pseudotaktowa	!	!	!	!	!	!	!
*	*	*	*	*	*	*	*ij
2C/	mun-	.	.	2c\	.	2.g/	pec-
=55-	=55-	=55-	=55-	=55-	=55-	=55-	=55-
2BB/	.	.	.	2d\	.	.	.
.	.	.	.	.	.	4f/	-ca-
2C/	-di	2G/	-ci-	1c\	.	2e/	-ta
!LO:TX:t=P:problem:kreska pseudotaktowa	!	!LO:TX:t=P:problem:kreska pseudotaktowa	!	!	!	!	!
1GG/	.	0G/	-pe	.	.	1d/	mun-
!	!	!	!	!LO:TX:t=P:problem:kreska pseudotaktowa	!	!	!
.	.	.	.	2B/	.	.	.
=56-	=56-	=56-	=56-	=56-	=56-	=56-	=56-
1.C/	Suſ-	.	.	2c,<\	-di,	2e,</	-di
*	*	*	*	*	*	*	*Xij
.	.	.	.	1c\	Suſ-	1e/	Suſ-
.	.	2r	.	.	.	.	.
!	!	!	!	!	!	!LO:TX:t=P:problem:kreska pseudotaktowa	!
2C/	-ci-	2G/	de-	2c\	-ci-	2e/	-ci-
=57-	=57-	=57-	=57-	=57-	=57-	=57-	=57-
!LO:TX:t=P:problem:kreska pseudotaktowa	!	!	!	!	!	!	!
1C/	-pe	2G/	-pre-	1.c\	-pe	2e/	-pe
.	.	2G/	-ca-	.	.	2e/	de-
2r	.	2A\	-ti-	.	.	2f/	-pre-
!LO:TX:t=P:problem:kreska pseudotaktowa	!	!LO:TX:t=P:problem:kreska pseudotaktowa	!	!LO:TX:t=P:problem:kreska pseudotaktowa	!	!	!
2GG/	de-	2B\	-o-	2d\	de-	1g\	-ca-
=58-	=58-	=58-	=58-	=58-	=58-	=58-	=58-
2C/	-pre-	2G/	-nem	2e\	-pre-	.	.
2AA/	-ca-	2.A/	no-	2c\	-ca-	4f/	.
!	!	!	!	!	!	!LO:TX:t=P:problem:kreska pseudotaktowa	!
.	.	.	.	.	.	4e/	.
2D/	-ti-	.	.	2d\	-ti-	2f/	-ti-
.	.	4G/	.	.	.	.	.
!LO:TX:t=P:problem:kreska pseudotaktowa	!	!	!	!	!	!	!
2C/	-o-	1c\	.	2G/	-o-	2g/	-o-
=59-	=59-	=59-	=59-	=59-	=59-	=59-	=59-
2F\	-nem	.	.	2A,</	-nem	2f/	-nem
!	!	!LO:TX:t=P:problem:kreska pseudotaktowa	!	!	!	!	!
2D\	.	2d\	.	2.f\	no-	2.a\	no-
2F\	no-	2c\	.	.	.	.	.
.	.	.	.	4e\	.	4g/	.
!LO:TX:t=P:problem:kreska pseudotaktowa	!	!	!	!	!	!	!
2G\	.	2B\	.	4d\	.	1g\	.
.	.	.	.	4c\	.	.	.
=60-	=60-	=60-	=60-	=60-	=60-	=60-	=60-
!	!	!	!	!LO:TX:t=P:problem:kreska pseudotaktowa	!	!	!
1D\	.	1A\	.	1d\	.	.	.
.	.	.	.	.	.	2f/	.
!	!	!	!	!	!	!LO:TX:t=P:problem:kreska pseudotaktowa	!
2GG/	-stram	2G,</	-stram	2B,</	-stram	0.g\	-stram
!LO:TX:t=P:problem:kreska pseudotaktowa	!	!	!	!LO:TX:t=P:problem:kreska pseudotaktowa	!	!	!
2G\	Qui	2B\	qui	2d\	qui	.	.
=61-	=61-	=61-	=61-	=61-	=61-	=61-	=61-
2C/	se-	2c\	se-	2e\	se-	.	.
1G\	-des	1B\	-des	1d\	-des	.	.
!LO:TX:t=P:problem:kreska pseudotaktowa	!	!	!	!	!	!	!
!LO:SIC:v:t=custos E	!	!LO:TX:t=P:problem:kreska pseudotaktowa	!	!LO:TX:t=P:problem:kreska pseudotaktowa	!	!	!
2C/	ad	2G/	ad	2c\	ad	.	.
=62-	=62-	=62-	=62-	=62-	=62-	=62-	=62-
!	!	!	!	!	!	!LO:LB:g=original	!
!LO:LB:g=original	!	!	!	!	!	!LO:TX:t=P:problem:kreska pseudotaktowa	!
2E\	dex-	2G/	dex-	2c/	dex-	00r	.
2D/	-te-	2F/	-te-	2A/	-te-	.	.
2.C/	-ram	2E/	-r(am)	1c\,	-r(am)	.	.
.	.	2A\	Pa-	.	.	.	.
!LO:TX:t=P:problem:kreska pseudotaktowa	!	!	!	!	!	!	!
4D/	.	.	.	.	.	.	.
=63-	=63-	=63-	=63-	=63-	=63-	=63-	=63-
*	*	*lig	*	*	*	*	*
4E\	.	1G/	-tris	1B/	P(a-	.	.
4F\	.	.	.	.	.	.	.
1G\	Pa-	.	.	.	.	.	.
!	!	!LO:TX:t=P:problem:kreska pseudotaktowa	!	!LO:TX:t=P:problem:kreska pseudotaktowa	!	!	!
.	.	1D/	.	1A/	-t)ris	.	.
2F\	.	.	.	.	.	.	.
*	*	*Xlig	*	*	*	*	*
=64-	=64-	=64-	=64-	=64-	=64-	=64-	=64-
!LO:TX:t=P:problem:kreska pseudotaktowa	!	!LO:LB:g=original	!	!	!	!	!
1G\	-tris	2r	.	2r	.	2r	.
.	.	2G/	mi-	2d\	mi-	2g/	mi-
!LO:TX:t=P:problem:kreska pseudotaktowa	!	!	!	!	!	!	!
00r	.	2d\	-ſe-	2f\	-ſe-	2a\	-ſe-
!	!	!	!	!LO:TX:t=P:problem:kreska pseudotaktowa	!	!	!
.	.	2G/	-re-	2d\	-re-	1g\	-re-
=65-	=65-	=65-	=65-	=65-	=65-	=65-	=65-
.	.	2c\	-re	2e\	-re	.	.
!	!	!LO:TX:t=P:problem:kreska pseudotaktowa	!	!	!	!	!
.	.	2d\	No-	1d\	.	2.f/	-re
.	.	2.A/	.	.	.	.	.
.	.	.	.	.	.	8e/L	.
.	.	.	.	.	.	8d/J	.
!	!	!	!	!	!	!LO:TX:t=P:problem:kreska pseudotaktowa	!
.	.	.	.	4c/	no-	2e/	no-
.	.	4G/	.	4B/	.	.	.
=66-	=66-	=66-	=66-	=66-	=66-	=66-	=66-
.	.	2F/	.	2A/	.	2d,</	-bis.
.	.	2G/	.	2B/	.	1d/	Quo-
!	!	!	!	!LO:TX:t=P:problem:kreska pseudotaktowa	!	!	!
2r	.	4D/	.	1A/	-bis.	.	.
.	.	4E/	.	.	.	.	.
!	!	!	!	!	!	!LO:TX:t=P:problem:kreska pseudotaktowa	!
1D\	Quo-	4F/	.	.	.	2d/	-ni-
.	.	4G/	.	.	.	.	.
=67-	=67-	=67-	=67-	=67-	=67-	=67-	=67-
!	!	!LO:TX:t=P:problem:kreska pseudotaktowa	!	!	!	!	!
.	.	1A\	-bis	2r	.	4f/	-am
.	.	.	.	.	.	4e/	.
!LO:TX:t=P:problem:kreska pseudotaktowa	!	!	!	!	!	!	!
2D\	-ni-	.	.	1A/	Quo-	4f/	.
.	.	.	.	.	.	4g/	.
1F\,	-am	0r	.	.	.	2a\	Tu
.	.	.	.	2A/	-ni-	1cc\	so-
=68-	=68-	=68-	=68-	=68-	=68-	=68-	=68-
2E\	Tu	.	.	1c\	-am	.	.
2F\	so-	.	.	.	.	2a\	-l(us)
!	!	!LO:TX:t=P:problem:kreska pseudotaktowa	!	!	!	!	!
2G\	.	1r	.	2B/	Tu	2g/	S(an)-
!LO:TX:t=P:problem:kreska pseudotaktowa	!	!	!	!	!	!	!
2A\	-l(us)	.	.	2c\	so-	2f/	.
=69-	=69-	=69-	=69-	=69-	=69-	=69-	=69-
!	!	!	!	!	!	!LO:TX:t=P:problem:kreska pseudotaktowa	!
0G\	S(an)-	2r	.	2d\	-l(us)	1g\	-ct(us)
!	!	!	!	!LO:TX:t=P:problem:kreska pseudotaktowa	!	!	!
.	.	2c\	Tu	2e\	S(an)-	.	.
.	.	2c\	so-	2d,<\	-ct(us)	0r	.
.	.	2B\	-l(us)	2g\	Tu	.	.
=70-	=70-	=70-	=70-	=70-	=70-	=70-	=70-
2C/	.	2c\	Do-	2g\	so-	.	.
!	!	!LO:TX:t=P:problem:kreska pseudotaktowa	!	!LO:TX:t=P:problem:kreska pseudotaktowa	!	!	!
2D/	.	2A/	-mi-	2f\	-l(us)	.	.
!LO:TX:t=P:problem:kreska pseudotaktowa	!	!	!	!	!	!	!
1E\	-ct(us)	2G,</	-n(us)	2g\	Do-	2r	.
*	*	*	*ij	*	*	*	*
.	.	2C/	Tu	2e\	.	2cc\	Tu
=71-	=71-	=71-	=71-	=71-	=71-	=71-	=71-
0r	.	2F/	so-	1d\	.	2cc\	so-
.	.	2G/	-l(us)	.	.	2b\	-lus
.	.	2A/	Do-	2.c\	.	2cc\	D(o-
!	!	!	!	!	!	!LO:TX:t=P:problem:kreska pseudotaktowa	!
.	.	2F/	-mi-	.	.	2a\	-mi)-
!	!	!	!	!LO:TX:t=P:problem:kreska pseudotaktowa	!	!	!
.	.	.	.	4d\	-mi-	.	.
=72-	=72-	=72-	=72-	=72-	=72-	=72-	=72-
1.C/	Tu	2c,<\	-n(us)	2e,<\	-n(us)	2g,</	-nus
*	*	*	*Xij	*	*	*	*
.	.	1G/	Tu	1c\	Tu	1e/	Tu
!LO:TX:t=P:problem:kreska pseudotaktowa	!	!LO:TX:t=P:problem:kreska pseudotaktowa	!	!LO:TX:t=P:problem:kreska pseudotaktowa	!	!	!
2C/	so-	2G/	so-	2c/	so-	2e/	so-
=73-	=73-	=73-	=73-	=73-	=73-	=73-	=73-
2C/	-lus	2E/	-l(us)	2c\	-lus	2g\	-l(us)
2BB/	al-	2D/	al-	2d\	Al-	2g\	al-
2C/	-tiſ-	2E/	-tiſ-	2c\	-tiſ-	2a\	-tiſ-
!LO:TX:t=P:problem:kreska pseudotaktowa	!	!	!	!	!	!	!
2AA/	-si-	2F/	-si-	2c\	-si-	2a\	-si-
=74-	=74-	=74-	=74-	=74-	=74-	=74-	=74-
2GG,</	-m(us)	2G,</	-m(us)	2B,</	-m(us)	2b,<\	-m(us)
!	!	!LO:TX:t=P:problem:kreska pseudotaktowa	!	!	!	!LO:TX:t=P:problem:kreska pseudotaktowa	!
2GG/	Je-	2G/	Je	2.d\	Je-	2b\	Je-
!LO:TX:t=P:problem:kreska pseudotaktowa	!	!	!	!	!	!	!
1D\	-su	2F/	.	.	.	1a\	-su
.	.	.	.	4e\	.	.	.
!	!	!	!	!LO:TX:t=P:problem:kreska pseudotaktowa	!	!	!
.	.	1A\	su	2f\	.	.	.
=75-	=75-	=75-	=75-	=75-	=75-	=75-	=75-
4C/	Chri-	.	.	1e\	-su	2.cc\	x-
4D/	.	.	.	.	.	.	.
4E/	.	2.G/	X-	.	.	.	.
4F/	.	.	.	.	.	8b\L	.
.	.	.	.	.	.	8a\J	.
2G\	.	.	.	2d\	Chri-	2b\	-te
.	.	4F/	.	.	.	.	.
!LO:TX:t=P:problem:kreska pseudotaktowa	!	!LO:TX:t=P:problem:kreska pseudotaktowa	!	!	!	!	!
2C/	.	2G/	-te	2e\	.	1cc\	.
=76-	=76-	=76-	=76-	=76-	=76-	=76-	=76-
2F\	.	2A/	.	2f\	.	.	.
!LO:TX:t=P:problem:kreska pseudotaktowa	!	!	!	!LO:TX:t=P:problem:kreska pseudotaktowa	!	!	!
2G\	.	2B/	.	2d\	.	2b\	.
*	*	*lig	*	*	*	*	*
!	!	!	!	!	!	!LO:TX:t=P:problem:kreska pseudotaktowa	!
2C,</	-ste	1G/	.	2e,<\	-ste	1cc\	.
2C/	Cum	.	.	2c\	Cum	.	.
=77-	=77-	=77-	=77-	=77-	=77-	=77-	=77-
!	!	!	!	!	!	!LO:LB:g=original	!
2C/	S(an)-	1A\	.	2e\	San-	1r	.
!LO:TX:t=P:problem:kreska pseudotaktowa	!	!	!	!	!	!	!
2D/	-cto	.	.	2f\	.	.	.
!	!	!	!	!LO:TX:t=P:problem:kreska pseudotaktowa	!	!	!
*	*	*Xlig	*	*	*	*	*
!	!	!LO:SIC:v:t=custos G	!	!	!	!	!
1.E\	Spi-	0G/	.	2.g\	-cto	2r	.
.	.	.	.	.	.	2g/	Cum
.	.	.	.	4f\	.	.	.
=78-	=78-	=78-	=78-	=78-	=78-	=78-	=78-
!	!	!LO:TX:t=P:problem:kreska pseudotaktowa	!	!	!	!	!
.	.	.	.	2g\	San-	2b\	S(an)-
!	!	!	!	!LO:TX:t=P:problem:kreska pseudotaktowa	!	!	!
2C/	-ri-	.	.	2e\	.	2cc\	-cto
!LO:TX:t=P:problem:kreska pseudotaktowa	!	!LO:PB:g=original	!	!	!	!	!
1G\	-tu	2r	.	4d/	.	2.dd\	San-
.	.	.	.	4c/	.	.	.
.	.	2G/	Cum	4B/	.	.	.
!	!	!	!	!	!	!LO:TX:t=P:problem:kreska pseudotaktowa	!
.	.	.	.	4A/	.	4cc\	.
=79-	=79-	=79-	=79-	=79-	=79-	=79-	=79-
0r	.	2B\	S(an)-	2G/	-cto	2dd\	-cto
!	!	!LO:TX:t=P:problem:kreska pseudotaktowa	!	!	!	!	!
.	.	2c\	-cto	2g\	Spi-	2.ee\	Spi-
.	.	2d\	Spi-	2f\	-ri-	.	.
.	.	.	.	.	.	4dd\	.
!	!	!	!	!LO:TX:t=P:problem:kreska pseudotaktowa	!	!	!
.	.	2B\	.	2d\	.	1dd\	.
=80-	=80-	=80-	=80-	=80-	=80-	=80-	=80-
!LO:TX:t=P:problem:kreska pseudotaktowa	!	!	!	!	!	!	!
1r	.	2A\	.	1e\,	-tu	.	.
!	!	!	!	!	!	!LO:TX:t=P:problem:kreska pseudotaktowa	!
.	.	2c\	-ri-	.	.	2cc\	-ri-
!	!	!LO:TX:t=P:problem:kreska pseudotaktowa	!	!	!	!	!
2r	.	1G/	-tu	2d\	in	2dd,<\	-tu
2C/	Cum	.	.	2c/	glo-	1g\	Cum
=81-	=81-	=81-	=81-	=81-	=81-	=81-	=81-
2E\	S(an)-	1r	.	2B/	-ri-	.	.
!LO:TX:t=P:problem:kreska pseudotaktowa	!	!	!	!LO:TX:t=P:problem:kreska pseudotaktowa	!	!	!
2F\	-cto	.	.	2A/	.	2a\	S(an)-
!	!	!	!	!LO:TX:t=P:problem:kreska pseudotaktowa	!	!	!
2.G\	San-	2r	.	1d\	-a	2b,<\	-cto
*	*	*	*ij	*	*	*	*ij
.	.	2G/	Cum	.	.	1g\	S(an)-
4F\	.	.	.	.	.	.	.
=82-	=82-	=82-	=82-	=82-	=82-	=82-	=82-
2G\	.	2B\	S(an)-	0r	.	.	.
!LO:TX:t=P:problem:kreska pseudotaktowa	!	!LO:TX:t=P:problem:kreska pseudotaktowa	!	!	!	!LO:TX:t=P:problem:kreska pseudotaktowa	!
2A\	.	2c\	-cto	.	.	2f/	.
1.G\	-cto	2.d\	Spi-	.	.	2g\	-cto
*	*	*	*	*	*	*	*Xij
.	.	.	.	.	.	2.b\	Spi-
.	.	4c\	.	.	.	.	.
=83-	=83-	=83-	=83-	=83-	=83-	=83-	=83-
.	.	2d\	.	0r	.	.	.
.	.	.	.	.	.	4a\	.
2E\	.	2.e\	.	.	.	1cc\	.
2F\	Spi-	.	.	.	.	.	.
.	.	4d\	.	.	.	.	.
2G\	.	1d\	.	.	.	4b\	-ri-
!	!	!	!	!	!	!LO:TX:t=P:problem:kreska pseudotaktowa	!
.	.	.	.	.	.	4a\	.
=84-	=84-	=84-	=84-	=84-	=84-	=84-	=84-
!	!	!	!	!LO:TX:t=P:problem:kreska pseudotaktowa	!	!LO:TX:t=P:problem:kreska pseudotaktowa	!
1E\	-ri-	.	.	1r	.	1g\	-tu
!	!	!LO:TX:t=P:problem:kreska pseudotaktowa	!	!	!	!	!
.	.	2c\	-ri-	.	.	.	.
!LO:TX:t=P:problem:kreska pseudotaktowa	!	!	!	!	!	!	!
1D\	-tu	2d,<\	-tu	2r	.	1r	.
*	*	*	*Xij	*	*	*	*
.	.	2D/	in	1f\	in	.	.
=85-	=85-	=85-	=85-	=85-	=85-	=85-	=85-
00r	.	2F/	glo-	.	.	1cc\	in
.	.	2C/	-ri-	2e\	glo-	.	.
.	.	2G/	-a	2d\	-ri-	2b\	glo-
!	!	!LO:TX:t=P:problem:kreska pseudotaktowa	!	!LO:TX:t=P:problem:kreska pseudotaktowa	!	!	!
.	.	2F/	De-	2f\	-a	2a\	.
=86-	=86-	=86-	=86-	=86-	=86-	=86-	=86-
.	.	2A/	-i	2e\	De-	1cc\	-ri-
!	!	!	!	!LO:TX:t=P:problem:kreska pseudotaktowa	!	!	!
.	.	2A/	Pa-	2f\	-i	.	.
.	.	2G/	-tris	2d\	Pa-	2b\	-a
.	.	1A\	A-	4c/	.	1cc\	De-
.	.	.	.	4B/	.	.	.
=87-	=87-	=87-	=87-	=87-	=87-	=87-	=87-
1F\	in	.	.	2A/	-tris	.	.
!	!	!LO:TX:t=P:problem:kreska pseudotaktowa	!	!	!	!LO:TX:t=P:problem:kreska pseudotaktowa	!
.	.	2F/	.	2.c/	A-	2a\	-i
2E\	.	2G/	.	.	.	2g/	Pa-
.	.	.	.	4B/	.	.	.
2D\	glo-	2.A/	.	2d\	.	1f/	.
=88-	=88-	=88-	=88-	=88-	=88-	=88-	=88-
!	!	!	!	!LO:TX:t=P:problem:kreska pseudotaktowa	!	!	!
2F\	-ri-	.	.	1c\	-men	.	.
.	.	4G/	.	.	.	.	.
2E\	-a	1G/	.	.	.	2g/	.
2F\	De-	.	.	2r	.	2.a\	.
!LO:TX:t=P:problem:kreska pseudotaktowa	!	!LO:TX:t=P:problem:♯above	!	!	!	!	!
2D/	-i	2F#X/	.	2f\	in	.	.
.	.	.	.	.	.	4b\	.
=89-	=89-	=89-	=89-	=89-	=89-	=89-	=89-
!	!	!LO:TX:t=P:problem:kreska pseudotaktowa	!	!	!	!	!
2C/	Pa-	1G/	-men	2e\	glo-	2cc\	.
2BB/	-tris	.	.	2d\	-ri-	2dd\	.
!	!	!	!	!LO:TX:t=P:problem:kreska pseudotaktowa	!	!	!
2.C/	A-	1r	.	1e\	-a	2g,</	-tris
!	!	!	!	!	!	!LO:TX:t=P:problem:kreska pseudotaktowa	!
.	.	.	.	.	.	2g/	in
4BB/	.	.	.	.	.	.	.
=90-	=90-	=90-	=90-	=90-	=90-	=90-	=90-
!LO:TX:t=P:problem:kreska pseudotaktowa	!	!	!	!	!	!	!
1AA/	.	1c\	in	2r	.	2f/	glo-
!	!	!	!	!	!	!LO:SIC:v:t=custos g	!
.	.	.	.	2A/	De-	2e/	-ri-
!	!	!	!	!	!	!LO:LB:g=original	!
2GG/	.	2B\	glo-	2d\	-i	2g/	-a
!	!	!	!	!LO:TX:t=P:problem:kreska pseudotaktowa	!	!	!
2D/	.	2A\	-ri-	2d\	Pa-	2f/	De-
=91-	=91-	=91-	=91-	=91-	=91-	=91-	=91-
!	!	!	!	!	!	!LO:TX:t=P:problem:kreska pseudotaktowa	!
2C/	.	2c\	-a	1.G/	-tris	1g\	-i
2GG/	.	2B\	De-	.	.	.	.
2C/	.	2c\	-i	.	.	2e/	Pa-
!LO:TX:t=P:problem:kreska pseudotaktowa	!	!	!	!LO:TX:t=P:problem:kreska pseudotaktowa	!	!LO:TX:t=P:problem:kreska pseudotaktowa	!
2D\	.	2A/	P(a-	2d\	A-	2f/	-tris
=92-	=92-	=92-	=92-	=92-	=92-	=92-	=92-
2E\	.	2G/	-t)ris	2B/	.	2g/	a-
2D\	.	2Fny/	.	1d\	.	2.a\	.
*	*	*lig	*	*	*	*	*
1E\	.	1G/	a-	.	.	.	.
.	.	.	.	.	.	4g/	.
.	.	.	.	2c\	.	1g\	.
=93-	=93-	=93-	=93-	=93-	=93-	=93-	=93-
1D\	.	1A\	.	0d\;	-men.	.	.
.	.	.	.	.	.	2f#X/	.
*	*	*Xlig	*	*	*	*	*
!LO:N:vis=0	!	!LO:N:vis=0	!	!	!	!LO:N:vis=0	!
1GG/;	-men.	1G/;	-me[n]	.	.	1g\;	-men.
==	==	==	==	==	==	==	==
*-	*-	*-	*-	*-	*-	*-	*-
!!!RDF**kern: > = above
!!!RDF**kern: < = below
!!!system-decoration: [(s1,s2,s3,s4)]
!!!EED: Andrzej Borzym
!!!EST: 2021-03-16
!!!ENC: Andrzej Borzym
!!!END: 2021-02-27
